X:1
T:Gi’e the Mawking mair o’t
M:C|
L:1/8
B:Oswald – Caledonian Pocket Companion Book 3 (1760, p. 27)
Z:AK/Fiddler’s Companion
K:G
"Moderately Quick"ef|g2G2 d2B2|f4 A2 ef|g2G2 d2B2|g4 d2 (cB)|
c2e2B2d2|A2a2 fgaf|g2G2 BcdB|g4 d2:|
|:(ef)|(gfed) g2B2|Tf4 A2ef|(gfed)g2B2|(gfed) g2G2|
cdec BcdB|A2a2 (fga)f|g2G2 (BcdB)|g4 d2:|
|:(ef)|gd B2 gdBg|f4 A2 (ef)|gd B2 gdBG|gd B2 gdBG|
ceac BdgB|A3B cdef|g2G2 BcdB|g4 d2:|
|:D2|GBdB GB dg|f4A3B|GBdB GB dg|GBdB gdBG|
caAc Bg GB|A3B cdef|g2G2 BcdB|g4 d2:|
|:(ef)|.g2.g2.g2.g2|Tf4 A2 (ef)|g2g2 (dB)(dB)|g2g2 (dB)(dB)|
(ec)A2 (dB)G2|ABAB cdef|g2G2 (Bcd)B|Tg4 d2:|
|:D2|TG4 GBdB|TA4 Aceg|TG4 GgdB|TG4 GgdB|
ceac BdgB|A2 (c'b) agfe|d2G2 (BcdB)|g4 d2:|
|:(ba)|(gb) Tb2 (gb) Tb2|.a(fed) .g(fed)|gb Tb2 gbTb2|(ga)(bc') .d'(bag)|
(c'd')(c'd') (bc')(bc')|abag fefd|gG2 BcdB|g4 d2:|
|:(ef)|g2B2g2B2|Tf4 A2 ef|g2B2g2G2|g2B2g2G2|
c2ac B2 gB|A2 ag fefd|g2G2 BcdB|g4 d2:|]

